X:2139
T:Arrane meshtalagh
T:Drinking song 
C:John Cubbon, Marble Mason 
C:Traditional
O:Isle of Man
Z:Clague collection
B:Kiaull Vannin #139
N:Used to be sung at the Public House at Colby Bridge 
N:See also KV 428
M:2/4 
L:1/4
Q:60 
K:G 
B/B/ G|B/c/ d|A F/F/|A/B/ c|z/ D|G>A|B G|B d| 
g d/d/|e c|B A/A/|G2||:B G|B/c/ d|A F|A/B/ c:||
BB |c2|A A|B2|g d|e/d/ c|B A|G2||

